X:1
T: Mrs Russell of Blackhall
C:Robert Mackintosh
R:Strathspey
Q: 128]
F: http://www.math.mun.ca/~bshawyer/straths/MrsRussellOfBlackhall.abc
K:F
M:4/4
L:1/16
|:AB|c3B Af3 d3c Bd3|c3B AF3 GF3 EC3|c3B Af3 d3c Bd3|
Ac3 BG3 AF3 F2AB|c3B Af3 d3c Bd3|c3B AF3 GF3 EC3|
c3B Af3 d3c Bd3|Ac3 BG3 AF3 F2fg|af3 f2ef df3 cA3|
Ff3 f2ef dg3 ec3|af3 f2ef df3 cf3|Bcd2 c3B AF3 F2fg|af3 f2ef df3 cA3|
Ff3 f2ef dg3 ec3|((3a2b2a2) ((3g2a2g2) ((3f2g2f2) ((3e2f2e2) |dg3 ce3 f4 F2:|

